X:1
T:Title
%%score { 1 | 2 }
L:1/8
M:4/4
K:Eb
V:1 treble nm="Grand Piano"
V:2 bass 
V:1
 z4 z2[Q:1/4=100] EF | GGGG G2 FE | [DF]2 [DB]2 [DB]2 [DG][DF] | EEEE E2 G2 | [DF]6 EF | %5
 GGGG G2 FE | [DF]2 [DB]2 [DB]2 [EB][EB] | [Ec][CEB][CEA][B,EG] [DA]2 [DF]2 |[M:3/4] E6 | %9
[M:1/4] G[FA] |[M:4/4] [GB][GB][GB][GB] [GB]2 [GB][GB] | [EAc][Ece][EBd][EAc] [EGB]2 [B,EG][B,GB] | %12
 [B,GB] [B,FA]2 [B,DF] [B,FA] [B,EG]2 [G,B,E] | %13
[M:9/8] [=A,EG][A,EF][A,DF] [A,CE] [B,DF]2- [B,DF][B,EG][B,FA] | %14
[M:4/4] [GB][GB][GB][GB] [GB]2 [GB][GB] |[M:9/8] ccc c e2- edc | %16
[M:4/4] [Gc] [GB]2 [B,EG] [CEB] [CEA]2 [A,CF] |[M:7/8] [G,B,E][G,B,E][B,EG]>[A,DF] [G,E]3 |] %18
V:2
 z4 z2 [E,G,][E,A,E] | [E,B,E][E,B,E][E,B,E][E,B,E] [E,B,E]2 [E,A,B,][E,G,B,] | %2
 [B,,B,]2 [B,,F,]2 [B,,F,]2 [B,,B,][B,,A,] | [E,G,B,][E,G,B,][E,G,B,][E,G,B,] [G,B,]2 [E,B,E]2 | %4
 [B,,B,]6 [E,G,B,][E,A,B,] | [E,B,E][E,B,E][E,B,E][E,B,E] [E,B,E]2 [E,A,B,][E,G,B,] | %6
 [B,,B,]2 [B,,F,]2 [B,,F,]2 [E,G,][E,G,] | [A,,A,]A,,A,,B,, [B,,F,]2 [B,,A,]2 |[M:3/4] [E,G,]6 | %9
[M:1/4] [E,B,E][E,B,] |[M:4/4] [E,E][E,E][E,E][E,E] [E,E]2 [E,E][E,E] | A,A,A,A, E,2 E,E, | %12
 B,, B,,2 B,, E, E,2 E, |[M:9/8] C,C,C, C, B,,2- B,,E,E, | %14
[M:4/4] [E,E][E,E][E,E][E,E] [E,E]2 [E,E][E,E] | %15
[M:9/8][K:treble] [A,EA][A,EA][A,EA] [A,EA] [A,CA]2- [A,CA][A,DA][A,EA] | %16
[M:4/4][K:bass] [E,E] [E,E]2 E, A,, A,,2 A,, |[M:7/8] B,,B,,B,,>B,, E,3 |] %18

